X:76
T:Sonata in D Major Op.5 - Preludio
C:Purcell, H.
M:4/4
L:1/8
Q:1/4=72
K:D
|:A2|d4 ef g2|f2 ed c2 B2|A4 Bc d2|e4 d2 A2|
B4 cd e2|d2 ef g2 a2|b4 ag f2|d4 d2:|

